images/app1.svg

<svg width="32" height="32" viewBox="0 0 32 32" fill="none" xmlns="http://www.w3.org/2000/svg">
<path d="M3 3.71815V28.2807C3.00016 28.3339 3.01606 28.386 3.04569 28.4303C3.07532 28.4746 3.11737 28.5091 3.16656 28.5296C3.21575 28.5501 3.2699 28.5556 3.32222 28.5455C3.37453 28.5353 3.42268 28.5099 3.46062 28.4725L16.25 16L3.46062 3.52628C3.42268 3.48886 3.37453 3.46349 3.32222 3.45333C3.2699 3.44317 3.21575 3.44868 3.16656 3.46917C3.11737 3.48966 3.07532 3.52422 3.04569 3.56852C3.01606 3.61281 3.00016 3.66486 3 3.71815Z" fill="white"/>
<path d="M21.6125 10.875L5.57627 2.04L5.56627 2.03438C5.29002 1.88438 5.02752 2.25813 5.25377 2.47563L17.8244 14.4956L21.6125 10.875Z" fill="white"/>
<path d="M5.25499 29.5244C5.02749 29.7419 5.28999 30.1156 5.56749 29.9656L5.57749 29.96L21.6125 21.125L17.8244 17.5031L5.25499 29.5244Z" fill="white"/>
<path d="M28.0863 14.4375L23.6081 11.9713L19.3975 16L23.6081 20.0269L28.0863 17.5625C29.3044 16.8894 29.3044 15.1106 28.0863 14.4375Z" fill="white"/>
</svg>

<svg width="32" height="32" fill="none" xmlns="http://www.w3.org/2000/svg"><path d="M3 3.718v24.563a.27.27 0 00.46.192L16.25 16 3.46 3.526a.27.27 0 00-.46.192zM21.613 10.875L5.576 2.04l-.01-.006c-.276-.15-.538.224-.312.442l12.57 12.02 3.788-3.621zM5.255 29.524c-.228.218.035.592.312.442l.01-.006 16.035-8.835-3.788-3.622L5.255 29.524zM28.086 14.438l-4.478-2.467L19.398 16l4.21 4.027 4.478-2.465c1.218-.673 1.218-2.451 0-3.125z" fill="#fff"/></svg>
